; generated by Slic3r 1.1.7 on 2014-08-25 at 19:19:02

; perimeters extrusion width = 0.35mm
; infill extrusion width = 0.52mm
; solid infill extrusion width = 0.52mm
; top infill extrusion width = 0.52mm

G21 ; set units to millimeters
M107
M190 S60 ; wait for bed temperature to be reached
M220 S100 ; Set feedmultiply back to normal (100%)
M109 S170 ; get temp close before auto level
M106 S128 ; 50% fan to prevent hotend jam
M104 S200 ; Set the temp but don't wait
G28 ; Home to top 3 endstops
G29 Z0.0 ; Autolevel and adjust first layer thickness
G0 X-85 Y0 ; Move to left center of bed
M109 S200 ; Set the temp and wait
G90 ; use absolute coordinates
G92 E0
M82 ; use absolute distances for extrusion
G1 F2400.000 E-4.00000
G1 Z0.800 F7500.000
G92 E0
G1 X14.705 Y-20.808 F7500.000
G1 Z0.300 F7500.000
G1 E4.00000 F2400.000
G1 X25.100 Y-13.462 E4.55566 F1200.000
G1 X36.582 Y-4.586 E5.18918
G1 X38.087 Y-2.920 E5.28719
G1 X38.919 Y-0.835 E5.38519
G1 X39.048 Y0.438 E5.44105
G1 X39.048 Y8.438 E5.79028
G1 X38.651 Y10.648 E5.88828
G1 X37.510 Y12.581 E5.98629
G1 X35.428 Y14.171 E6.10067
G1 X3.541 Y29.274 E7.64089
G1 X3.072 Y29.417 E7.66228
G1 X1.850 Y29.660 E7.71666
G1 X1.363 Y29.708 E7.73805
G1 X0.119 Y29.708 E7.79232
G1 X-0.369 Y29.660 E7.81375
G1 X-1.591 Y29.417 E7.86812
G1 X-2.060 Y29.274 E7.88952
G1 X-3.209 Y28.798 E7.94384
G1 X-4.312 Y28.153 E7.99959
G1 X-25.100 Y13.462 E9.11084
G1 X-36.582 Y4.586 E9.74436
G1 X-38.087 Y2.920 E9.84236
G1 X-38.919 Y0.835 E9.94037
G1 X-39.048 Y-0.438 E9.99623
G1 X-39.048 Y-8.438 E10.34546
G1 X-38.651 Y-10.648 E10.44346
G1 X-37.510 Y-12.581 E10.54146
G1 X-35.428 Y-14.171 E10.65585
G1 X-3.541 Y-29.274 E12.19606
G1 X-3.072 Y-29.417 E12.21746
G1 X-1.851 Y-29.659 E12.27181
G1 X-1.363 Y-29.708 E12.29323
G1 X-0.109 Y-29.707 E12.34797
G1 X0.369 Y-29.660 E12.36892 F1200.000
G1 X1.590 Y-29.417 E12.42328
G1 X2.060 Y-29.274 E12.44469
G1 X3.209 Y-28.798 E12.49901
G1 X4.312 Y-28.153 E12.55477
G1 X14.662 Y-20.838 E13.10806
G1 X6.153 Y-26.090 F6000.000 E9.30806
G1 F2400.000 E9.10806
G1 Z0.800 F7500.000
G92 E0
G1 X-29.158 Y-6.263 F7500.000
G1 Z0.300 F7500.000
G1 E4.00000 F2400.000
G1 X-29.158 Y-1.313 E4.21609 F1200.000
G1 X-31.823 Y-1.313 E4.33240
G1 X-31.823 Y-7.563 E4.60523
G1 X-29.158 Y-7.563 E4.72155
G1 X-29.158 Y-7.513 E4.72373
G1 X-2.366 Y-7.513 E5.89334
G1 X-2.366 Y-20.845 E6.47534
G1 X-2.330 Y-21.204 E6.49109
G1 X-2.238 Y-21.508 E6.50496
G1 X-2.088 Y-21.789 E6.51883
G1 X-1.887 Y-22.034 E6.53270
G1 X-1.641 Y-22.236 E6.54657
G1 X-1.361 Y-22.385 E6.56044
G1 X-1.057 Y-22.478 E6.57431
G1 X-0.741 Y-22.509 E6.58818
G1 X-0.424 Y-22.478 E6.60205
G1 X-0.120 Y-22.385 E6.61592
G1 X0.160 Y-22.236 E6.62979
G1 X0.405 Y-22.034 E6.64366
G1 X0.607 Y-21.789 E6.65753
G1 X0.757 Y-21.508 E6.67140
G1 X0.849 Y-21.204 E6.68527
G1 X0.884 Y-20.845 E6.70103
G1 X0.884 Y-7.513 E7.28302
G1 X17.677 Y-7.513 E8.01609
G1 X17.677 Y-7.563 E8.01828
G1 X20.342 Y-7.563 E8.13459
G1 X20.342 Y-1.313 E8.40742
G1 X17.677 Y-1.313 E8.52373
G1 X17.677 Y-6.263 E8.73982
G1 X-29.106 Y-6.263 E10.78209
G1 X-28.808 Y-5.913 F7500.000
G1 X-28.808 Y-0.963 E10.99818 F1200.000
G1 X-32.173 Y-0.963 E11.14504
G1 X-32.173 Y-7.913 E11.44844
G1 X-28.808 Y-7.913 E11.59531
G1 X-28.808 Y-7.863 E11.59749
G1 X-2.716 Y-7.863 E12.73654
G1 X-2.716 Y-20.862 E13.30401
G1 X-2.675 Y-21.273 E13.32202
G1 X-2.563 Y-21.643 E13.33890
G1 X-2.381 Y-21.984 E13.35578
G1 X-2.135 Y-22.283 E13.37266
G1 X-1.837 Y-22.528 E13.38954
G1 X-1.495 Y-22.710 E13.40642
G1 X-1.125 Y-22.823 E13.42330
G1 X-0.741 Y-22.861 E13.44018
G1 X-0.356 Y-22.823 E13.45706
G1 X0.014 Y-22.710 E13.47394
G1 X0.355 Y-22.528 E13.49082
G1 X0.654 Y-22.283 E13.50770
G1 X0.899 Y-21.984 E13.52458
G1 X1.082 Y-21.643 E13.54146
G1 X1.194 Y-21.273 E13.55834
G1 X1.234 Y-20.862 E13.57635
G1 X1.234 Y-7.863 E14.14382
G1 X17.327 Y-7.863 E14.84633
G1 X17.327 Y-7.913 E14.84851
G1 X20.692 Y-7.913 E14.99538
G1 X20.692 Y-0.963 E15.29878
G1 X17.327 Y-0.963 E15.44564
G1 X17.327 Y-5.913 E15.66173
G1 X-28.756 Y-5.913 E17.67344
G1 X-28.458 Y-5.563 F7500.000
G1 X-28.458 Y-0.613 E17.88953 F1200.000
G1 X-32.523 Y-0.613 E18.06695
G1 X-32.523 Y-8.263 E18.40090
G1 X-28.458 Y-8.263 E18.57833
G1 X-28.458 Y-8.213 E18.58051
G1 X-3.066 Y-8.213 E19.68901
G1 X-3.066 Y-20.879 E20.24195
G1 X-3.020 Y-21.341 E20.26221
G1 X-2.888 Y-21.777 E20.28210
G1 X-2.673 Y-22.179 E20.30199
G1 X-2.384 Y-22.532 E20.32188
G1 X-2.032 Y-22.821 E20.34177
G1 X-1.630 Y-23.035 E20.36166
G1 X-1.194 Y-23.168 E20.38155
G1 X-0.741 Y-23.212 E20.40144
G1 X-0.287 Y-23.168 E20.42133
G1 X0.149 Y-23.035 E20.44122
G1 X0.551 Y-22.821 E20.46111
G1 X0.903 Y-22.532 E20.48100
G1 X1.192 Y-22.179 E20.50089
G1 X1.407 Y-21.777 E20.52078
G1 X1.539 Y-21.341 E20.54067
G1 X1.584 Y-20.879 E20.56093
G1 X1.584 Y-8.213 E21.11387
G1 X16.977 Y-8.213 E21.78583
G1 X16.977 Y-8.263 E21.78801
G1 X21.042 Y-8.263 E21.96544
G1 X21.042 Y-0.613 E22.29939
G1 X16.977 Y-0.613 E22.47681
G1 X16.977 Y-5.563 E22.69290
G1 X-28.406 Y-5.563 E24.67405
G1 X-28.808 Y-5.563 F7500.000
G1 X-31.586 Y-1.590 F7500.000
G1 X-31.546 Y-1.550 E24.67662 F1200.000
G1 X-31.029 Y-1.550 E24.70007
G1 X-31.586 Y-2.107 E24.73581
G1 X-31.586 Y-2.624 E24.75927
G1 X-30.512 Y-1.550 E24.82818
G1 X-29.995 Y-1.550 E24.85163
G1 X-31.586 Y-3.141 E24.95371
G1 X-31.586 Y-3.658 E24.97717
G1 X-29.478 Y-1.550 E25.11242
G1 X-29.395 Y-1.984 E25.13247
G1 X-31.586 Y-4.175 E25.27303
G1 X-31.586 Y-4.692 E25.29649
G1 X-29.395 Y-2.501 E25.43704
G1 X-29.395 Y-3.018 E25.46050
G1 X-31.586 Y-5.209 E25.60106
G1 X-31.586 Y-5.726 E25.62451
G1 X-29.395 Y-3.535 E25.76507
G1 X-29.395 Y-4.052 E25.78853
G1 X-31.586 Y-6.243 E25.92909
G1 X-31.586 Y-6.760 E25.95254
G1 X-29.395 Y-4.569 E26.09310
G1 X-29.395 Y-5.086 E26.11656
G1 X-31.586 Y-7.277 E26.25711
G1 X-31.118 Y-7.326 E26.27845
G1 X-29.395 Y-5.603 E26.38900
G1 X-29.395 Y-6.120 E26.41246
G1 X-30.601 Y-7.326 E26.48984
G1 X-30.084 Y-7.326 E26.51330
G1 X-29.258 Y-6.500 E26.56631
G1 X-28.741 Y-6.500 E26.58977
G1 X-29.567 Y-7.326 E26.64279
G1 X-29.000 Y-7.276 E26.66861
G1 X-28.224 Y-6.500 E26.71843
G1 X-27.707 Y-6.500 E26.74188
G1 X-28.483 Y-7.276 E26.79169
G1 X-27.966 Y-7.276 E26.81515
G1 X-27.190 Y-6.500 E26.86496
G1 X-26.673 Y-6.500 E26.88841
G1 X-27.449 Y-7.276 E26.93823
G1 X-26.932 Y-7.276 E26.96168
G1 X-26.156 Y-6.500 E27.01149
G1 X-25.639 Y-6.500 E27.03495
G1 X-26.415 Y-7.276 E27.08476
G1 X-25.898 Y-7.276 E27.10822
G1 X-25.122 Y-6.500 E27.15803
G1 X-24.605 Y-6.500 E27.18148
G1 X-25.381 Y-7.276 E27.23129
G1 X-24.864 Y-7.276 E27.25475
G1 X-24.088 Y-6.500 E27.30456
G1 X-23.571 Y-6.500 E27.32802
G1 X-24.347 Y-7.276 E27.37783
G1 X-23.830 Y-7.276 E27.40128
G1 X-23.054 Y-6.500 E27.45110
G1 X-22.537 Y-6.500 E27.47455
G1 X-23.313 Y-7.276 E27.52436
G1 X-22.796 Y-7.276 E27.54782
G1 X-22.020 Y-6.500 E27.59763
G1 X-21.503 Y-6.500 E27.62109
G1 X-22.279 Y-7.276 E27.67090
G1 X-21.762 Y-7.276 E27.69435
G1 X-20.986 Y-6.500 E27.74416
G1 X-20.469 Y-6.500 E27.76762
G1 X-21.245 Y-7.276 E27.81743
G1 X-20.728 Y-7.276 E27.84089
G1 X-19.952 Y-6.500 E27.89070
G1 X-19.435 Y-6.500 E27.91415
G1 X-20.211 Y-7.276 E27.96397
G1 X-19.694 Y-7.276 E27.98742
G1 X-18.918 Y-6.500 E28.03723
G1 X-18.401 Y-6.500 E28.06069
G1 X-19.177 Y-7.276 E28.11050
G1 X-18.660 Y-7.276 E28.13396
G1 X-17.884 Y-6.500 E28.18377
G1 X-17.367 Y-6.500 E28.20722
G1 X-18.143 Y-7.276 E28.25703
G1 X-17.626 Y-7.276 E28.28049
G1 X-16.850 Y-6.500 E28.33030
G1 X-16.333 Y-6.500 E28.35376
G1 X-17.109 Y-7.276 E28.40357
G1 X-16.592 Y-7.276 E28.42702
G1 X-15.816 Y-6.500 E28.47684
G1 X-15.299 Y-6.500 E28.50029
G1 X-16.075 Y-7.276 E28.55010
G1 X-15.558 Y-7.276 E28.57356
G1 X-14.782 Y-6.500 E28.62337
G1 X-14.265 Y-6.500 E28.64683
G1 X-15.041 Y-7.276 E28.69664
G1 X-14.524 Y-7.276 E28.72009
G1 X-13.748 Y-6.500 E28.76990
G1 X-13.231 Y-6.500 E28.79336
G1 X-14.007 Y-7.276 E28.84317
G1 X-13.490 Y-7.276 E28.86663
G1 X-12.714 Y-6.500 E28.91644
G1 X-12.197 Y-6.500 E28.93989
G1 X-12.973 Y-7.276 E28.98971
G1 X-12.456 Y-7.276 E29.01316
G1 X-11.680 Y-6.500 E29.06297
G1 X-11.163 Y-6.500 E29.08643
G1 X-11.939 Y-7.276 E29.13624
G1 X-11.422 Y-7.276 E29.15969
G1 X-10.646 Y-6.500 E29.20951
G1 X-10.129 Y-6.500 E29.23296
G1 X-10.905 Y-7.276 E29.28277
G1 X-10.388 Y-7.276 E29.30623
G1 X-9.612 Y-6.500 E29.35604
G1 X-9.095 Y-6.500 E29.37950
G1 X-9.871 Y-7.276 E29.42931
G1 X-9.354 Y-7.276 E29.45276
G1 X-8.578 Y-6.500 E29.50257
G1 X-8.061 Y-6.500 E29.52603
G1 X-8.837 Y-7.276 E29.57584
G1 X-8.320 Y-7.276 E29.59930
G1 X-7.544 Y-6.500 E29.64911
G1 X-7.027 Y-6.500 E29.67256
G1 X-7.803 Y-7.276 E29.72238
G1 X-7.286 Y-7.276 E29.74583
G1 X-6.510 Y-6.500 E29.79564
G1 X-5.993 Y-6.500 E29.81910
G1 X-6.769 Y-7.276 E29.86891
G1 X-6.252 Y-7.276 E29.89237
G1 X-5.476 Y-6.500 E29.94218
G1 X-4.959 Y-6.500 E29.96563
G1 X-5.735 Y-7.276 E30.01544
G1 X-5.218 Y-7.276 E30.03890
G1 X-4.442 Y-6.500 E30.08871
G1 X-3.925 Y-6.500 E30.11217
G1 X-4.701 Y-7.276 E30.16198
G1 X-4.184 Y-7.276 E30.18543
G1 X-3.408 Y-6.500 E30.23524
G1 X-2.891 Y-6.500 E30.25870
G1 X-3.667 Y-7.276 E30.30851
G1 X-3.150 Y-7.276 E30.33197
G1 X-2.374 Y-6.500 E30.38178
G1 X-1.857 Y-6.500 E30.40523
G1 X-2.633 Y-7.276 E30.45505
G1 X-2.129 Y-7.289 E30.47794
G1 X-1.340 Y-6.500 E30.52855
G1 X-0.823 Y-6.500 E30.55201
G1 X-2.129 Y-7.806 E30.63580
G1 X-2.129 Y-8.323 E30.65925
G1 X-0.306 Y-6.500 E30.77621
G1 X0.211 Y-6.500 E30.79966
G1 X-2.129 Y-8.840 E30.94979
G1 X-2.129 Y-9.357 E30.97324
G1 X0.728 Y-6.500 E31.15654
G1 X1.245 Y-6.500 E31.18000
G1 X-2.129 Y-9.874 E31.39647
G1 X-2.129 Y-10.391 E31.41992
G1 X0.648 Y-7.614 E31.59805
G1 X0.986 Y-7.276 F7500.000
G1 X1.762 Y-6.500 E31.64786 F1200.000
G1 X2.279 Y-6.500 E31.67132
G1 X1.503 Y-7.276 E31.72113
G1 X2.020 Y-7.276 E31.74459
G1 X2.796 Y-6.500 E31.79440
G1 X3.313 Y-6.500 E31.81785
G1 X2.537 Y-7.276 E31.86767
G1 X3.054 Y-7.276 E31.89112
G1 X3.830 Y-6.500 E31.94093
G1 X4.347 Y-6.500 E31.96439
G1 X3.571 Y-7.276 E32.01420
G1 X4.088 Y-7.276 E32.03766
G1 X4.864 Y-6.500 E32.08747
G1 X5.381 Y-6.500 E32.11092
G1 X4.605 Y-7.276 E32.16073
G1 X5.122 Y-7.276 E32.18419
G1 X5.898 Y-6.500 E32.23400
G1 X6.415 Y-6.500 E32.25746
G1 X5.639 Y-7.276 E32.30727
G1 X6.156 Y-7.276 E32.33072
G1 X6.932 Y-6.500 E32.38054
G1 X7.449 Y-6.500 E32.40399
G1 X6.673 Y-7.276 E32.45380
G1 X7.190 Y-7.276 E32.47726
G1 X7.966 Y-6.500 E32.52707
G1 X8.483 Y-6.500 E32.55053
G1 X7.707 Y-7.276 E32.60034
G1 X8.224 Y-7.276 E32.62379
G1 X9.000 Y-6.500 E32.67360
G1 X9.517 Y-6.500 E32.69706
G1 X8.741 Y-7.276 E32.74687
G1 X9.258 Y-7.276 E32.77033
G1 X10.034 Y-6.500 E32.82014
G1 X10.551 Y-6.500 E32.84359
G1 X9.775 Y-7.276 E32.89341
G1 X10.292 Y-7.276 E32.91686
G1 X11.068 Y-6.500 E32.96667
G1 X11.585 Y-6.500 E32.99013
G1 X10.809 Y-7.276 E33.03994
G1 X11.326 Y-7.276 E33.06339
G1 X12.102 Y-6.500 E33.11321
G1 X12.619 Y-6.500 E33.13666
G1 X11.843 Y-7.276 E33.18647
G1 X12.360 Y-7.276 E33.20993
G1 X13.136 Y-6.500 E33.25974
G1 X13.653 Y-6.500 E33.28320
G1 X12.877 Y-7.276 E33.33301
G1 X13.394 Y-7.276 E33.35646
G1 X14.170 Y-6.500 E33.40627
G1 X14.687 Y-6.500 E33.42973
G1 X13.911 Y-7.276 E33.47954
G1 X14.428 Y-7.276 E33.50300
G1 X15.204 Y-6.500 E33.55281
G1 X15.721 Y-6.500 E33.57626
G1 X14.945 Y-7.276 E33.62608
G1 X15.462 Y-7.276 E33.64953
G1 X16.238 Y-6.500 E33.69934
G1 X16.755 Y-6.500 E33.72280
G1 X15.979 Y-7.276 E33.77261
G1 X16.496 Y-7.276 E33.79607
G1 X17.272 Y-6.500 E33.84588
G1 X20.065 Y-7.326 F7500.000
G1 X20.105 Y-7.286 E33.84844 F1200.000
G1 X20.105 Y-6.769 E33.87190
G1 X19.548 Y-7.326 E33.90764
G1 X19.031 Y-7.326 E33.93109
G1 X20.105 Y-6.252 E34.00000
G1 X20.105 Y-5.735 E34.02346
G1 X18.514 Y-7.326 E34.12554
G1 X17.997 Y-7.326 E34.14899
G1 X20.105 Y-5.218 E34.28424
G1 X20.105 Y-4.701 E34.30770
G1 X17.530 Y-7.276 E34.47291
G1 X17.013 Y-7.276 E34.49637
G1 X20.105 Y-4.184 E34.69475
G1 X20.105 Y-3.667 E34.71820
G1 X17.914 Y-5.858 E34.85876
G1 X17.914 Y-5.341 E34.88222
G1 X20.105 Y-3.150 E35.02277
G1 X20.105 Y-2.633 E35.04623
G1 X17.914 Y-4.824 E35.18679
G1 X17.914 Y-4.307 E35.21024
G1 X20.105 Y-2.116 E35.35080
G1 X20.105 Y-1.599 E35.37425
G1 X17.914 Y-3.790 E35.51481
G1 X17.914 Y-3.273 E35.53827
G1 X19.637 Y-1.550 E35.64882
G1 X19.120 Y-1.550 E35.67227
G1 X17.914 Y-2.756 E35.74966
G1 X17.914 Y-2.239 E35.77311
G1 X18.603 Y-1.550 E35.81732
G1 X18.086 Y-1.550 E35.84078
G1 X17.914 Y-1.722 E35.85182
G1 X18.086 Y-1.550 F6000.000 E35.75935
G1 X18.603 Y-1.550 F6000.000 E35.56289
G1 X17.914 Y-2.239 F6000.000 E35.19259
G1 X17.914 Y-2.756 F6000.000 E34.99613
G1 X19.120 Y-1.550 F6000.000 E34.34799
G1 X19.637 Y-1.550 F6000.000 E34.15153
G1 X17.914 Y-3.273 F6000.000 E33.22555
G1 X17.914 Y-3.790 F6000.000 E33.02909
G1 X19.732 Y-1.971 F6000.000 E32.05182
G1 F2400.000 E31.85182
G1 Z0.800 F7500.000
G92 E0
G1 X-2.129 Y-10.908 F7500.000
G1 Z0.300 F7500.000
G1 E4.00000 F2400.000
G1 X0.648 Y-8.131 E4.17813 F1200.000
G1 X0.648 Y-8.648 E4.20159
G1 X-2.129 Y-11.425 E4.37972
G1 X-2.129 Y-11.942 E4.40318
G1 X0.648 Y-9.165 E4.58131
G1 X0.648 Y-9.682 E4.60476
G1 X-2.129 Y-12.459 E4.78290
G1 X-2.129 Y-12.976 E4.80635
G1 X0.648 Y-10.199 E4.98448
G1 X0.648 Y-10.716 E5.00794
G1 X-2.129 Y-13.493 E5.18607
G1 X-2.129 Y-14.010 E5.20953
G1 X0.648 Y-11.233 E5.38766
G1 X0.648 Y-11.750 E5.41111
G1 X-2.129 Y-14.527 E5.58925
G1 X-2.129 Y-15.044 E5.61270
G1 X0.648 Y-12.267 E5.79083
G1 X0.648 Y-12.784 E5.81429
G1 X-2.129 Y-15.561 E5.99242
G1 X-2.129 Y-16.078 E6.01588
G1 X0.648 Y-13.301 E6.19401
G1 X0.648 Y-13.818 E6.21746
G1 X-2.129 Y-16.595 E6.39560
G1 X-2.129 Y-17.112 E6.41905
G1 X0.648 Y-14.335 E6.59718
G1 X0.648 Y-14.852 E6.62064
G1 X-2.129 Y-17.629 E6.79877
G1 X-2.129 Y-18.146 E6.82223
G1 X0.648 Y-15.369 E7.00036
G1 X0.648 Y-15.886 E7.02381
G1 X-2.129 Y-18.663 E7.20195
G1 X-2.129 Y-19.180 E7.22540
G1 X0.648 Y-16.403 E7.40353
G1 X0.648 Y-16.920 E7.42699
G1 X-2.129 Y-19.697 E7.60512
G1 X-2.129 Y-20.214 E7.62858
G1 X0.648 Y-17.437 E7.80671
G1 X0.648 Y-17.954 E7.83016
G1 X-2.129 Y-20.731 E8.00830
G1 X-2.083 Y-21.202 E8.02979
G1 X0.648 Y-18.471 E8.20501
G1 X0.648 Y-18.988 E8.22846
G1 X-1.936 Y-21.572 E8.39420
G1 X-1.715 Y-21.868 E8.41097
G1 X0.648 Y-19.505 E8.56258
G1 X0.648 Y-20.022 E8.58603
G1 X-1.417 Y-22.087 E8.71849
G1 X-1.046 Y-22.233 E8.73657
G1 X0.648 Y-20.539 E8.84526
G1 X0.623 Y-21.081 E8.86984
G1 X-0.548 Y-22.252 E8.94498
G1 X0.623 Y-21.081 F6000.000 E8.31560
G1 X0.648 Y-20.539 F6000.000 E8.10968
G1 X-1.046 Y-22.233 F6000.000 E7.19934
G1 X-1.417 Y-22.087 F6000.000 E7.04793
G1 X0.648 Y-20.022 F6000.000 E5.93844
G1 X0.648 Y-19.505 F6000.000 E5.74198
G1 X-0.463 Y-20.616 F6000.000 E5.14498
G1 F2400.000 E4.94498
G1 Z0.800 F7500.000
G92 E0
G1 X-0.884 Y7.513 F7500.000
G1 Z0.300 F7500.000
G1 E4.00000 F2400.000
G1 X-17.677 Y7.513 E4.73307 F1200.000
G1 X-17.677 Y7.563 E4.73526
G1 X-20.342 Y7.563 E4.85156
G1 X-20.342 Y1.313 E5.12440
G1 X-17.677 Y1.313 E5.24071
G1 X-17.677 Y6.263 E5.45680
G1 X29.158 Y6.263 E7.50136
G1 X29.158 Y1.313 E7.71744
G1 X31.823 Y1.313 E7.83376
G1 X31.823 Y7.563 E8.10659
G1 X29.158 Y7.563 E8.22290
G1 X29.158 Y7.513 E8.22509
G1 X2.366 Y7.513 E9.39470
G1 X2.366 Y20.845 E9.97669
G1 X2.330 Y21.204 E9.99245
G1 X2.238 Y21.508 E10.00632
G1 X2.088 Y21.789 E10.02019
G1 X1.887 Y22.034 E10.03406
G1 X1.641 Y22.236 E10.04793
G1 X1.361 Y22.385 E10.06180
G1 X1.057 Y22.478 E10.07567
G1 X0.741 Y22.509 E10.08954
G1 X0.425 Y22.478 E10.10341
G1 X0.120 Y22.385 E10.11728
G1 X-0.160 Y22.236 E10.13115
G1 X-0.405 Y22.034 E10.14502
G1 X-0.607 Y21.789 E10.15889
G1 X-0.757 Y21.508 E10.17276
G1 X-0.849 Y21.204 E10.18663
G1 X-0.884 Y20.845 E10.20238
G1 X-0.884 Y7.566 E10.78209
G1 X-1.234 Y7.863 F7500.000
G1 X-17.327 Y7.863 E11.48460 F1200.000
G1 X-17.327 Y7.913 E11.48679
G1 X-20.692 Y7.913 E11.63365
G1 X-20.692 Y0.963 E11.93705
G1 X-17.327 Y0.963 E12.08391
G1 X-17.327 Y5.913 E12.30000
G1 X28.808 Y5.913 E14.31400
G1 X28.808 Y0.963 E14.53009
G1 X32.173 Y0.963 E14.67696
G1 X32.173 Y7.913 E14.98035
G1 X28.808 Y7.913 E15.12722
G1 X28.808 Y7.863 E15.12940
G1 X2.716 Y7.863 E16.26846
G1 X2.716 Y20.862 E16.83593
G1 X2.675 Y21.273 E16.85393
G1 X2.563 Y21.643 E16.87082
G1 X2.381 Y21.984 E16.88770
G1 X2.135 Y22.283 E16.90458
G1 X1.837 Y22.528 E16.92146
G1 X1.495 Y22.710 E16.93834
G1 X1.125 Y22.823 E16.95522
G1 X0.741 Y22.861 E16.97209
